img/services/03.svg

<svg width="30" height="25" viewBox="0 0 30 25" fill="none" xmlns="http://www.w3.org/2000/svg">
<path d="M0 1C0 0.447715 0.447715 0 1 0H13.0816C13.6339 0 14.0816 0.447715 14.0816 1V5.75676C14.0816 6.30904 13.6339 6.75676 13.0816 6.75676H1C0.447715 6.75676 0 6.30904 0 5.75676V1Z" fill="white"/>
<path d="M0 10.1216C0 9.56934 0.447715 9.12162 1 9.12162H6.95918C7.51147 9.12162 7.95918 9.56934 7.95918 10.1216V14.8784C7.95918 15.4307 7.51147 15.8784 6.95918 15.8784H1C0.447716 15.8784 0 15.4307 0 14.8784V10.1216Z" fill="white"/>
<path d="M9.79592 10.1216C9.79592 9.56934 10.2436 9.12162 10.7959 9.12162H22.8776C23.4298 9.12162 23.8776 9.56934 23.8776 10.1216V14.8784C23.8776 15.4307 23.4298 15.8784 22.8776 15.8784H10.7959C10.2436 15.8784 9.79592 15.4307 9.79592 14.8784V10.1216Z" fill="white"/>
<path d="M0 19.2432C0 18.691 0.447715 18.2432 1 18.2432H13.0816C13.6339 18.2432 14.0816 18.691 14.0816 19.2432V24C14.0816 24.5523 13.6339 25 13.0816 25H1C0.447715 25 0 24.5523 0 24V19.2432Z" fill="white"/>
<path d="M15.9184 19.2432C15.9184 18.691 16.3661 18.2432 16.9184 18.2432H29C29.5523 18.2432 30 18.691 30 19.2432V24C30 24.5523 29.5523 25 29 25H16.9184C16.3661 25 15.9184 24.5523 15.9184 24V19.2432Z" fill="white"/>
</svg>

<svg width="30" height="25" viewBox="0 0 30 25" fill="none" xmlns="http://www.w3.org/2000/svg"><path d="M0 1a1 1 0 011-1h12.082a1 1 0 011 1v4.757a1 1 0 01-1 1H1a1 1 0 01-1-1V1zm0 9.122a1 1 0 011-1h5.96a1 1 0 011 1v4.756a1 1 0 01-1 1H1a1 1 0 01-1-1v-4.756zm9.796 0a1 1 0 011-1h12.082a1 1 0 011 1v4.756a1 1 0 01-1 1H10.796a1 1 0 01-1-1v-4.756zM0 19.243a1 1 0 011-1h12.082a1 1 0 011 1V24a1 1 0 01-1 1H1a1 1 0 01-1-1v-4.757zm15.918 0a1 1 0 011-1H29a1 1 0 011 1V24a1 1 0 01-1 1H16.918a1 1 0 01-1-1v-4.757z" fill="#fff"/></svg>
